X:255
T: Tommy Mulhaire's
S: "First Collection of Traditional Irish Music" (M.Mulvihill)
Z: B.Black
L: 1/8
M: 6/8
R: jig
K: G
D/E/|EDE G2 A|BeB dBA|edB GAB|ABA AGE|
EDE G2 A|BeB dBA|edB GAB|AGF G2 :|
B|dBd def|g2e fdB|ABA ABd|egf e2f|
g2e fed|edB gfg|edB AGA|BGF G2 :|
